dist/assets/images/complitedOrder/doneBtn.svg

<svg width="72" height="72" viewBox="0 0 72 72" fill="none" xmlns="http://www.w3.org/2000/svg">
<g clip-path="url(#clip0_887_7235)">
<path d="M0.5 36C0.5 16.4249 16.4249 0.5 36 0.5C55.5751 0.5 71.5 16.4249 71.5 36C71.5 55.5751 55.5751 71.5 36 71.5C16.4249 71.5 0.5 55.5751 0.5 36Z" stroke="#785D4C"/>
<path d="M30.3037 49.5C29.9407 49.5 29.5927 49.3545 29.3366 49.0938L19.9003 39.4937C19.3666 38.9507 19.3666 38.0711 19.9003 37.5281C20.434 36.9851 21.2987 36.9851 21.8324 37.5281L30.3037 46.1443L51.6676 24.4072C52.2013 23.8643 53.066 23.8643 53.5997 24.4072C54.1334 24.9502 54.1334 25.8299 53.5997 26.3729L31.2686 49.0917C31.0125 49.3545 30.6666 49.5 30.3037 49.5Z" fill="#785D4C"/>
</g>
<defs>
<clipPath id="clip0_887_7235">
<rect width="72" height="72" fill="white"/>
</clipPath>
</defs>
</svg>

<svg width="72" height="72" fill="none" xmlns="http://www.w3.org/2000/svg"><g clip-path="url(#clip0_887_7235)"><path d="M.5 36C.5 16.425 16.425.5 36 .5S71.5 16.425 71.5 36 55.575 71.5 36 71.5.5 55.575.5 36z" stroke="#785D4C"/><path d="M30.304 49.5c-.363 0-.711-.145-.967-.406l-9.437-9.6a1.407 1.407 0 010-1.966 1.35 1.35 0 011.932 0l8.472 8.616 21.364-21.737a1.35 1.35 0 011.932 0 1.407 1.407 0 010 1.966L31.269 49.092a1.343 1.343 0 01-.965.408z" fill="#785D4C"/></g><defs><clipPath id="clip0_887_7235"><path fill="#fff" d="M0 0h72v72H0z"/></clipPath></defs></svg>
